X:1
T:L'amara di partita
T:L'amara di partita
T:Magno Petreo
T:Source : Madrigaletti a 3 voci---Libro I---Copenhagen---H.Waldkirch---1616. Editor : André Vierendeels (18/04/14).
T:Notes : Original clefs : C1, C1, F4 Editorial accidentals above the staff
C:Magno Petreo
%%score [ 1 2 3 ]
L:1/8
Q:1/4=86
M:4/4
K:C
V:1 treble nm="Soprano 1" snm="S 1"
V:2 treble nm="Soprano 2" snm="S 2"
V:3 bass nm="Bass" snm="B"
V:1
 B8 | c6 B2 | A4 A4 | A6 B2 | ^G8 | z2 e2 B2 c2 | ^G6 A2 | B4 z2 e2 | e2 z B c3 A | B4 A2 E2 | %10
w: L'A-|ma- ra|di- par-|ti- *|ta,|a la- gri-|mar, _|_ a|so- spi- rar m'in-|vi- ta, m'in-|
"^#" GF E4 D2 | E8 | z4 ^G4 | A3 B c2 d2 | B4 B2 e2 | c3 B A2 A2 | ^G4 G4 | z4 c2 Bc | A2 B2 c4- | %19
w: vi- * * *|ta,|es'|el ri- tor- no|ca- ro, es'|el ri- tor- no|ca- ro,|to- sto non|ad- dol- cis-|
 c2 B2 A4- | A4 A4 | A2 ^G^F G4 | A6 e2 | ^G4 A4 | B3 A B2 ^c2 | ^d4 e4- | e4 ^d4 | e4 B4 | c6 B2 | %29
w: * se'il piant'|_ a-|ma- * * *|ro, il|piant' a-|ma- * * *|||ro, ve-|dras- s'in|
 A2 G2 ^F4 | E4 z2 B2- | BA B2 ^G2 e2- | ed e2 A2 d2 | c2 B2 A2 A2 | ^G2 A4 G2 | A2 e2 d2 c2 | %36
w: o- gni lo-|co, scin-|* til- lar fuor, scin-|* til- lar fuor l'ar-|den- te mio gran|fuo- * *|co, l'ar- den- te|
 B2 A2 ^G2 A2- | A2 ^G2 A4 | z2 d3 c d2 | B2 e3 d e2 | c2 c3 B c2 | A2 A3 G A2 | F3 G A4 | %43
w: mio gran fuo- *|* * co,|schin- til- lar|fuor, scin- til- lar|fuor, scin- til- lar|fuor, scin- til- lar|fuor, _ _|
 z4 z2 A2 | A2 B2 c4 | z2 e2 d2 c2 | B2 A2 B4 | A4 z4 | z2 A2 G2 F2 | E4 B4 | c8 | B8- | B8 |] %53
w: l'ar-|den- te mio,|l'ar- den- te|mio gran fuo-|co,|l'ar- den- te|mio gran|fuo-|co.|_|
V:2
 z4 ^G4 | ^G6 B2 | c4 e4 | d3 c d4 | e2 e2 B2 c2 | ^G6 A2 | B4 z2 e2 | e2 z B c3 A | B4 A2 e2 | %9
w: L'A-|ma- ra|di par-|ti- * *|ta, a la- gri-|mar, _|_ a|so- spi- rar m'in-|vi- ta, a|
 e2 z B c3 A | B3 c/B/ A4- | A4 ^G4 | z4 e4 | c3 B A2 A2 | ^G4 G2 G2 | A3 B c2 d2 | B4 B4 | %17
w: so- spi- rar m'in-|vi- * * *|* ta,|es'|el ri- tor- no|ca- ro, es'|el ri- tor- no|ca- ro,|
 c2 Bc A2 B2 | c6 B2 | A6 G2 | F4 E4 | D6 E2 | F4 E4- | E4 z2 e2 | ^G4 A4 | G6 A2 | B2 AG ^F4 | %27
w: to- sto non ad- dol-|cis- se'il|piant'- _|_ a-|ma- *|* ro,-|* il|piant' a-|ma- *||
 E4 ^G4 | A6 G2 | E2 E2 B4 | B2 B3 A B2 | ^G4 e4 | A6 B2 | c2 e2 d4 | e4 z2 e2- | ed e2 A4 | %36
w: ro, ve-|dras- s'in|o- gni lo-|co, scin- til- lar|fuor, ve-|dras- s'in|o- gno lo-|co, scin-|* til- lar fuor,|
 z2 d3 ^c d2 | B2 e2 d2 c2 | B2 A2 ^G2 A2- | A2 ^G2 A2 c2- | cB c2 A2 A2- | AG A2 F3 G | A4 z2 A2 | %43
w: scin- til- lar|fuor, l'ar- den- te|mio gran fo- *|* * co, scin-|* til- lar fuor, schin-|* til- lar fuor, _|_ l'ar-|
 A2 B2 c2 c2 | c2 d2 e2 e2 | d2 c2 B2 A2 | ^G2 A4 G2 | A2 A2 G2 F2 | E2 c2 B2 A2 | ^G4 G4 | %50
w: den- te mio, l'ar-|den- te mio, l'ar-|den- te mio gran|fo- * *|co, l'ar- den- te|mio, l'ar- den- te|mio gran|
 A2 E2 A4- | A4 G2 ^F2 | ^G8 |] %53
w: fuo- * *||co.|
V:3
 z4 E,4 | E,6 ^G,2 | A,4 ^C,4 | F,8 | E,8- | E,8 | z2 E,2 B,,2 C,2 | ^G,,2 G,,2 A,,2 z A,, | %8
w: L'A-|ma- ra|di par-|ti-|ta,|_|a la- gri-|mar, a so- spi-|
 E,2 ^G,,2 A,,3 A,, | E,2 ^G,,2 A,,3 A,, | E,2 E,2 F,4 | E,8 | z4 E,4 | A,3 ^G, A,2 F,2 | %14
w: rar, a so- spi-|rar, a so- spi-|rar m'in- vi-|ta,|es'|el ri- tor- no|
 E,4 E,2 E,2 | A,3 ^G, A,2 F,2 | E,4 E,4 | A,2 G,A, F,2 G,2 | A,6 G,2 | F,6 E,2 | D,4 C,4 | B,,8 | %22
w: ca- ro, es|el ri- tor- no|ca- ro,|to- sto non ad- dol-|cis- se'il|piant' _|_ a-|ma-|
 A,,6 A,,2 | E,8- | E,4 C,4 | B,,8- | B,,8 | E,,4 E,4 | A,,6 B,,2 | C,2 E,2 ^D,4 | E,8 | z4 E,4 | %32
w: ro, il|piant'|_ a-|ma-||ro, ve|dras- s'in|o- gni lo-|co,|ve-|
 C6 B,2 | A,2 G,2 F,4 | E,2 E,3 D, E,2 | A,,6 A,2 | G,2 F,2 E,2 D,2 | E,4 A,,2 A,2 | %38
w: dras- s'in|o- gni lo-|co, scin- til- lar|fuor, l'ar-|den- te mio gran|fo- co, l'ar-|
 G,2 F,2 E,2 D,2 | E,4 A,,2 A,2- | A,G, A,2 F,2 F,2- | F,E, F,2 D,4- | D,4 z2 D,2 | %43
w: den- te mio gran|fo- co, scin-|* ti- lar fuor, scin-|* til- lar fuor,-|* l'ar-|
 C,2 B,,2 A,,2 F,2 | E,2 D,2 C,4 | z2 C,2 C,2 D,2 | E,2 F,2 E,4 | A,,2 A,,2 A,,2 B,,2 | %48
w: den- te mio, l'ar-|den- te mio,|l'ar- den- te|mio gran fo-|co, l'ar- den- te|
 C,2 C,2 C,2 D,2 | E,4 E,4 | A,,8 | E,,8- | E,,8 |] %53
w: mio, l'ar- den- te|mio gran|fo-|co.|_|

